actions/16/mail-reply-all.svg

<?xml version="1.0" encoding="UTF-8"?>
<svg id="c" width="16" height="16" version="1.1" xmlns="http://www.w3.org/2000/svg" xmlns:cc="http://creativecommons.org/ns#" xmlns:dc="http://purl.org/dc/elements/1.1/" xmlns:rdf="http://www.w3.org/1999/02/22-rdf-syntax-ns#">
	<metadata id="a">
		<rdf:RDF>
			<cc:Work rdf:about="">
				<dc:format>image/svg+xml</dc:format>
				<dc:type rdf:resource="http://purl.org/dc/dcmitype/StillImage"/>
				<dc:title/>
			</cc:Work>
		</rdf:RDF>
	</metadata>
	<defs id="e">
		<style id="current-color-scheme" type="text/css">.ColorScheme-Text {color:#090d11;}.ColorScheme-Background{color:#ffffff;}</style>
	</defs>
	<path id="d" class="ColorScheme-Text" d="m5.0003 3.0011v2l-2.75 1.9375-1.25-0.9375zm9 2v2h-1v-2zm-2 0v2h-1v-2zm-2 0v2h-4v1h5v2h-5v2l-4-3 4-3v-1zm5 3v2h-1v-2zm-2 0v2h-1v-2z" style="fill-opacity:.75;fill:currentColor"/>
	<path id="b" class="ColorScheme-Background" d="m5.0003 1.2508-0.8437 0.6875-4 3-0.8125 1.0625 0.8125 1.0625 1.0937 0.8125-0.094 0.062-0.8125 1.0625 0.8125 1.0625 4 3 0.8437 0.6875v-1.75l-4-3 0.375-0.2812 1.125-0.8438 2.5-1.875v-1h4v2h-4v1h5v2h-5v1h6v-3h1v3h1v-3h1v3h1v-4h-1v-3h-1v3h-1v-3h-1v3h-1v-3h-6v1h0.062l-2.6875 2.0313-0.125-0.094-1.25-0.9375 4-3v-1.75z" style="fill-opacity:.5;fill:currentColor"/>
</svg>

<?xml version="1.0" encoding="UTF-8" standalone="no"?>
<!-- Created with Inkscape (http://www.inkscape.org/) -->

<svg
   xmlns:dc="http://purl.org/dc/elements/1.1/"
   xmlns:cc="http://creativecommons.org/ns#"
   xmlns:rdf="http://www.w3.org/1999/02/22-rdf-syntax-ns#"
   xmlns:svg="http://www.w3.org/2000/svg"
   xmlns="http://www.w3.org/2000/svg"
   xmlns:sodipodi="http://sodipodi.sourceforge.net/DTD/sodipodi-0.dtd"
   xmlns:inkscape="http://www.inkscape.org/namespaces/inkscape"
   width="16"
   height="16"
   id="svg27665"
   version="1.1"
   inkscape:version="0.48.3.1 r9886"
   sodipodi:docname="mail-reply-all.svg">
  <defs
     id="defs27667" />
  <sodipodi:namedview
     id="base"
     pagecolor="#cbcdd6"
     bordercolor="#666666"
     borderopacity="1.0"
     inkscape:pageopacity="1"
     inkscape:pageshadow="2"
     inkscape:zoom="45.254837"
     inkscape:cx="13.702177"
     inkscape:cy="8.1556315"
     inkscape:document-units="px"
     inkscape:current-layer="layer1"
     showgrid="true"
     inkscape:window-width="1920"
     inkscape:window-height="1032"
     inkscape:window-x="-7"
     inkscape:window-y="25"
     inkscape:window-maximized="1"
     inkscape:snap-bbox="true"
     inkscape:bbox-paths="true"
     inkscape:bbox-nodes="true"
     inkscape:snap-bbox-edge-midpoints="true"
     inkscape:snap-bbox-midpoints="true"
     inkscape:object-paths="true"
     inkscape:snap-intersection-paths="true"
     inkscape:object-nodes="true"
     inkscape:snap-smooth-nodes="true"
     inkscape:snap-midpoints="true"
     inkscape:snap-object-midpoints="true"
     inkscape:snap-center="true"
     inkscape:snap-global="true"
     showguides="true"
     inkscape:guide-bbox="true"
     fit-margin-top="0"
     fit-margin-left="0"
     fit-margin-right="0"
     fit-margin-bottom="0"
     inkscape:showpageshadow="false">
    <inkscape:grid
       type="xygrid"
       id="grid3070"
       empspacing="5"
       visible="true"
       enabled="true"
       snapvisiblegridlinesonly="true"
       originx="0.00038724321px"
       originy="-0.00027304098px" />
  </sodipodi:namedview>
  <metadata
     id="metadata27670">
    <rdf:RDF>
      <cc:Work
         rdf:about="">
        <dc:format>image/svg+xml</dc:format>
        <dc:type
           rdf:resource="http://purl.org/dc/dcmitype/StillImage" />
        <dc:title />
      </cc:Work>
    </rdf:RDF>
  </metadata>
  <g
     inkscape:label="Camada 1"
     inkscape:groupmode="layer"
     id="layer1"
     transform="translate(3364.4171,-2100.7186)">
    <path
       sodipodi:nodetypes="ccccccccccccccccccccccccccccccccccccc"
       inkscape:connector-curvature="0"
       style="color:#000000;fill:#EDEFF3;fill-opacity:0.758;fill-rule:nonzero;stroke:none;stroke-width:2.28571415;marker:none;visibility:visible;display:inline;overflow:visible;enable-background:accumulate"
       d="m -3359.4167,2103.7189 0,2 -2.75,1.9375 -1.25,-0.9375 z m 9,2 0,2 -1,0 0,-2 z m -2,0 0,2 -1,0 0,-2 z m -2,0 0,2 -4,0 0,1 5,0 0,2 -5,0 0,2 -4,-3 4,-3 0,-1 z m 5,3 0,2 -1,0 0,-2 z m -2,0 0,2 -1,0 0,-2 z"
       id="path2994" />
    <path
       style="font-size:medium;font-style:normal;font-variant:normal;font-weight:normal;font-stretch:normal;text-indent:0;text-align:start;text-decoration:none;line-height:normal;letter-spacing:normal;word-spacing:normal;text-transform:none;direction:ltr;block-progression:tb;writing-mode:lr-tb;text-anchor:start;baseline-shift:baseline;color:#000000;fill:#485462;fill-opacity:0.7;fill-rule:nonzero;stroke:none;stroke-width:2;marker:none;visibility:visible;display:inline;overflow:visible;enable-background:accumulate;font-family:Sans;-inkscape-font-specification:Sans"
       d="M 5 1.25 L 4.15625 1.9375 L 0.15625 4.9375 L -0.65625 6 L 0.15625 7.0625 L 1.25 7.875 L 1.15625 7.9375 L 0.34375 9 L 1.15625 10.0625 L 5.15625 13.0625 L 6 13.75 L 6 12 L 2 9 L 2.375 8.71875 L 3.5 7.875 L 6 6 L 6 5 L 10 5 L 10 7 L 6 7 L 6 8 L 11 8 L 11 10 L 6 10 L 6 11 L 11 11 L 12 11 L 12 10 L 12 8 L 13 8 L 13 10 L 13 11 L 14 11 L 14 10 L 14 8 L 15 8 L 15 10 L 15 11 L 16 11 L 16 10 L 16 8 L 16 7 L 15 7 L 15 5 L 15 4 L 14 4 L 14 5 L 14 7 L 13 7 L 13 5 L 13 4 L 12 4 L 12 5 L 12 7 L 11 7 L 11 5 L 11 4 L 10 4 L 5 4 L 5 5 L 5.0625 5 L 2.375 7.03125 L 2.25 6.9375 L 1 6 L 5 3 L 5 1.25 z "
       transform="translate(-3364.4171,2100.7186)"
       id="path2992" />
  </g>
</svg>
